wallpaper/Ubuntu 18.04.svg

<?xml version="1.0" encoding="UTF-8" standalone="no"?>
<!-- Created with Inkscape (http://www.inkscape.org/) -->

<svg
   xmlns:dc="http://purl.org/dc/elements/1.1/"
   xmlns:cc="http://creativecommons.org/ns#"
   xmlns:rdf="http://www.w3.org/1999/02/22-rdf-syntax-ns#"
   xmlns:svg="http://www.w3.org/2000/svg"
   xmlns="http://www.w3.org/2000/svg"
   xmlns:xlink="http://www.w3.org/1999/xlink"
   xmlns:sodipodi="http://sodipodi.sourceforge.net/DTD/sodipodi-0.dtd"
   xmlns:inkscape="http://www.inkscape.org/namespaces/inkscape"
   version="1.1"
   id="svg2"
   width="4096"
   height="2304"
   viewBox="0 0 4096 2304"
   sodipodi:docname="Ubuntu 18.04.svg"
   inkscape:version="0.92.3 (2405546, 2018-03-11)">
  <metadata
     id="metadata8">
    <rdf:RDF>
      <cc:Work
         rdf:about="">
        <dc:format>image/svg+xml</dc:format>
        <dc:type
           rdf:resource="http://purl.org/dc/dcmitype/StillImage" />
        <dc:title></dc:title>
      </cc:Work>
    </rdf:RDF>
  </metadata>
  <defs
     id="defs6">
    <linearGradient
       inkscape:collect="always"
       xlink:href="#linearGradient876"
       id="linearGradient880"
       gradientUnits="userSpaceOnUse"
       x1="1876.1086"
       y1="32.926231"
       x2="39.296703"
       y2="1016.1141"
       gradientTransform="matrix(2.1333334,0,0,2.1333313,0.001,59.176147)" />
    <linearGradient
       inkscape:collect="always"
       id="linearGradient876">
      <stop
         style="stop-color:#e84e0d;stop-opacity:1"
         offset="0"
         id="stop872" />
      <stop
         id="stop828"
         offset="0.33719084"
         style="stop-color:#c03424;stop-opacity:1" />
      <stop
         style="stop-color:#810f44;stop-opacity:1"
         offset="0.65020347"
         id="stop830" />
      <stop
         style="stop-color:#3d012e;stop-opacity:1"
         offset="1"
         id="stop874" />
    </linearGradient>
  </defs>
  <sodipodi:namedview
     pagecolor="#ffffff"
     bordercolor="#666666"
     borderopacity="1"
     objecttolerance="10"
     gridtolerance="10"
     guidetolerance="10"
     inkscape:pageopacity="0"
     inkscape:pageshadow="2"
     inkscape:window-width="1920"
     inkscape:window-height="1009"
     id="namedview4"
     showgrid="false"
     inkscape:zoom="0.16676958"
     inkscape:cx="4155.4341"
     inkscape:cy="1238.2723"
     inkscape:window-x="0"
     inkscape:window-y="34"
     inkscape:window-maximized="1"
     inkscape:current-layer="svg2" />
  <rect
     style="opacity:1;fill:url(#linearGradient880);fill-opacity:1;stroke:none;stroke-width:2.13333321;stroke-linecap:round;stroke-linejoin:round;stroke-miterlimit:4;stroke-dasharray:none;stroke-dashoffset:0;stroke-opacity:1"
     id="rect4731"
     width="4096"
     height="2303.9978"
     x="0.00075703126"
     y="0.0020724563" />
  <path
     style="fill:#ffffff;stroke:none;stroke-width:1px;stroke-linecap:butt;stroke-linejoin:miter;stroke-opacity:1;fill-opacity:0.99579829;opacity:0.04"
     d="M 1292.957 0.001953125 L 0 0.001953125 L 0 1287.957 L 1292.957 0.001953125 z "
     id="path1500" />
  <path
     style="fill:#ffffff;stroke:none;stroke-width:1px;stroke-linecap:butt;stroke-linejoin:miter;stroke-opacity:1;fill-opacity:1;opacity:0.03"
     d="M 667.06055 0.001953125 L 0 0.001953125 L 0 2304 L 2998.1328 2304 L 667.06055 0.001953125 z "
     id="path1495" />
  <path
     style="fill:#ffffff;stroke:none;stroke-width:1px;stroke-linecap:butt;stroke-linejoin:miter;stroke-opacity:1;fill-opacity:0.99579829"
     d="M 399.5 -200.42969 L 401.98047 -199.51367 L 404.9375 -202.46875 L 399.5 -200.42969 z "
     id="path1493" />
  <path
     style="fill:#000000;stroke:none;stroke-width:1px;stroke-linecap:butt;stroke-linejoin:miter;stroke-opacity:1;fill-opacity:1;opacity:0.03"
     d="M 3761.793 2304 L 4096 2304 L 4096 1938.459 C 4004.7928 2042.1295 3867.0185 2191.1487 3761.793 2304 z "
     id="path1441" />
</svg>

<svg height="2304" viewBox="0 0 4096 2304" width="4096" xmlns="http://www.w3.org/2000/svg" xmlns:xlink="http://www.w3.org/1999/xlink"><linearGradient id="a" gradientTransform="matrix(2.1333334 0 0 2.1333313 .001 59.176147)" gradientUnits="userSpaceOnUse" x1="1876.1086" x2="39.296703" y1="32.926231" y2="1016.1141"><stop offset="0" stop-color="#e84e0d"/><stop offset=".33719084" stop-color="#c03424"/><stop offset=".65020347" stop-color="#810f44"/><stop offset="1" stop-color="#3d012e"/></linearGradient><path d="m.000757.002072h4096v2303.9978h-4096z" fill="url(#a)"/><g fill="#fff"><path d="m1292.957.00195313h-1292.957v1287.95504687z" fill-opacity=".995798" opacity=".04"/><path d="m667.06055.00195313h-667.06055v2303.99804687h2998.1328z" opacity=".03"/><path d="m399.5-200.42969 2.48047.91602 2.95703-2.95508z" fill-opacity=".995798"/></g><path d="m3761.793 2304h334.207v-365.541c-91.2072 103.6705-228.9815 252.6897-334.207 365.541z" opacity=".03"/></svg>
